X: 774
T: Paddy On The Turnpike
C:Monroe Style
B: jims roots
M:4/4
L:1/8
Q: 1/4=100
K:C
V:1 
%R: reel
D|:"G" Gggb g2 gg | Gggb g2 gg | "F"Bdde fedf | eddd d2  dD |
"G"DGGA Bdde | fedf eddA |_BAGB "D"AGED || [1 "G"DGGA G4:|
FGFE DCB,A, | "G"G,B,B,D GGGA | Bdde fedc | BAG_B "D"AGED |
"G"[G,D]G[G,G]A [G,4G4]:|
V:2 "G"DGGA G2 B,A,|:"G"G,B, [B,2G2
V:B,2G2 
 GA | BAGB AG G2 | "F"[G,D][A,F][A,F][A,F] [A,3F3]F |
% abcbook-tune_id 6298c2798c85d8285b63e768


% abcbook-boost 0
% abcbook-tablature 
% abcbook-transpose 
% abcbook-lastupdated 1654178426320
% abcbook-soundfonts 
% abcbook-repeats 1


